X:1
T:Title
%%score 1 { 2 | 3 }
L:1/8
Q:1/4=93
M:3/4
K:Ab
V:1 treble nm="Grand Piano, Soprano"
V:2 bass nm="Choir Pad, Better Land, 77.77.77"
V:3 bass 
V:1
 [CE]>[CE] [CE]3 [EA] | [DG][CA] [EB]4 | E>E [DB]3 [DB] | [CA][EB] [Ec]4 | [=Ec]>[GB] [FA]3 F | %5
w: By~William~Fiske~Sherwin,~1872 * * *|||||
 [=DB][FA] [EG]4 | [EA]>[EA] [EG]E [EG]2 | [B,F]2 [B,E]4 | [Ec]>[Ed] [Ae]3 [Ec] | [EB][EA] [DF]4 | %10
w: |||||
 [FA]>[DF] [CE]3 [CA] | [DB][Ec] [CA]4- | [CA]4 z2 |] %13
w: |||
V:2
 A,>A, A,3 E, | E,A, G,4 | E,>E, G,3 G, | A,G, A,4 | G,>C C3 A, | F,B, B,4 | C>C B,G, B,2 | %7
 A,2 G,4 | A,>B, C3 A, | G,A, A,4 | A,>A, A,3 A, | G,G, A,4- | A,4 z2 |] %13
V:3
 A,,>A,, A,,3 C, | B,,A,, E,4 | z2 E,3 E, | E,E, z2 z2 | C,>C, F,3 F, | B,,B,, E,4 | %6
 A,,>A,, B,,B,, B,,2 | B,,2 E,4 | z z/ A,/ A,3 A,, | B,,C, D,4 | D,>D, E,3 E, | E,E, A,,4- | %12
 A,,4 z2 |] %13

